_includes/icons/ios-dmg.svg

<svg fill="#666" height="50" viewBox="0 0 50 50" width="50" xmlns="http://www.w3.org/2000/svg"><path d="m7 2v46h36v-32.589844l-13.816406-13.410156zm2 2h18v13h13c.464844.007813.871094-.308594.984375-.761719l.015625.015625v29.746094h-32zm20 .609375 10.707031 10.390625h-10.707031zm5.832031 18.859375c-2.144531 0-4.242187 1.527344-4.289062 5.203125-.03125 1.738281.433594 3.238281 1.304687 4.078125.675782.679688 1.542969 1.007813 2.699219 1.007813.734375 0 1.664063-.179688 2.097656-.363282v-5.394531h-2.710937v1.601563h.898437v2.445312c-.074218.03125-.210937.046875-.390625.046875-.914062 0-1.859375-.871094-1.859375-3.300781 0-2.640625 1.066407-3.558594 2.402344-3.558594.492188 0 .867188.078125 1.152344.230469l.347656-1.699219c-.316406-.148437-.886719-.296875-1.652344-.296875zm-18.71875.046875c-.78125 0-1.5.070313-1.996093.191406v9.933594c.390625.042969 1.007812.101563 1.621093.101563 1.410157 0 2.414063-.316407 3.089844-.976563.886719-.777344 1.410156-2.234375 1.410156-4.273437 0-1.964844-.449218-3.300782-1.320312-4.082032-.644531-.597656-1.53125-.894531-2.804688-.894531zm5.730469.042969-.734375 10.109375h1.691406l.167969-3.511719c.058594-1.007812.117188-2.28125.148438-3.375h.042968c.152344 1.09375.421875 2.355469.617188 3.164063l.839844 3.554687h1.398437l.867188-3.613281c.195312-.78125.464843-2.023438.644531-3.105469h.046875c-.03125 1.082031.042969 2.386719.085937 3.34375l.183594 3.542969h1.753906l-.613281-10.109375h-2.074219l-.792968 3.660156c-.269532 1.273438-.496094 2.414063-.644532 3.539063h-.03125c-.179687-1.140625-.433593-2.265625-.71875-3.539063l-.8125-3.660156zm-5.371094 1.53125c1.183594 0 1.726563 1.257812 1.726563 3.328125 0 2.789062-.828125 3.71875-1.773438 3.71875-.101562 0-.253906 0-.34375-.027344v-6.976562c.121094-.046875.253907-.042969.390625-.042969z"/></svg>

<svg xmlns="http://www.w3.org/2000/svg" viewBox="0 0 50 50" width="50" height="50" fill="#666"><path d="M 7 2 L 7 48 L 43 48 L 43 15.410156 L 29.183594 2 Z M 9 4 L 27 4 L 27 17 L 40 17 C 40.464844 17.007813 40.871094 16.691406 40.984375 16.238281 L 41 16.253906 L 41 46 L 9 46 Z M 29 4.609375 L 39.707031 15 L 29 15 Z M 34.832031 23.46875 C 32.6875 23.46875 30.589844 24.996094 30.542969 28.671875 C 30.511719 30.410156 30.976563 31.910156 31.847656 32.75 C 32.523438 33.429688 33.390625 33.757813 34.546875 33.757813 C 35.28125 33.757813 36.210938 33.578125 36.644531 33.394531 L 36.644531 28 L 33.933594 28 L 33.933594 29.601563 L 34.832031 29.601563 L 34.832031 32.046875 C 34.757813 32.078125 34.621094 32.09375 34.441406 32.09375 C 33.527344 32.09375 32.582031 31.222656 32.582031 28.792969 C 32.582031 26.152344 33.648438 25.234375 34.984375 25.234375 C 35.476563 25.234375 35.851563 25.3125 36.136719 25.464844 L 36.484375 23.765625 C 36.167969 23.617188 35.597656 23.46875 34.832031 23.46875 Z M 16.113281 23.515625 C 15.332031 23.515625 14.613281 23.585938 14.117188 23.707031 L 14.117188 33.640625 C 14.507813 33.683594 15.125 33.742188 15.738281 33.742188 C 17.148438 33.742188 18.152344 33.425781 18.828125 32.765625 C 19.714844 31.988281 20.238281 30.53125 20.238281 28.492188 C 20.238281 26.527344 19.789063 25.191406 18.917969 24.410156 C 18.273438 23.8125 17.386719 23.515625 16.113281 23.515625 Z M 21.84375 23.558594 L 21.109375 33.667969 L 22.800781 33.667969 L 22.96875 30.15625 C 23.027344 29.148438 23.085938 27.875 23.117188 26.78125 L 23.160156 26.78125 C 23.3125 27.875 23.582031 29.136719 23.777344 29.945313 L 24.617188 33.5 L 26.015625 33.5 L 26.882813 29.886719 C 27.078125 29.105469 27.347656 27.863281 27.527344 26.78125 L 27.574219 26.78125 C 27.542969 27.863281 27.617188 29.167969 27.660156 30.125 L 27.84375 33.667969 L 29.597656 33.667969 L 28.984375 23.558594 L 26.910156 23.558594 L 26.117188 27.21875 C 25.847656 28.492188 25.621094 29.632813 25.472656 30.757813 L 25.441406 30.757813 C 25.261719 29.617188 25.007813 28.492188 24.722656 27.21875 L 23.910156 23.558594 Z M 16.472656 25.089844 C 17.65625 25.089844 18.199219 26.347656 18.199219 28.417969 C 18.199219 31.207031 17.371094 32.136719 16.425781 32.136719 C 16.324219 32.136719 16.171875 32.136719 16.082031 32.109375 L 16.082031 25.132813 C 16.203125 25.085938 16.335938 25.089844 16.472656 25.089844 Z"/></svg>
